X: 4
T: The Golden Keyboard
R: reel
M: 4/4
L: 1/8
K: Edor
BGEF GFGA|B2gB fBeB|BGEF GBAG|(3FED AD BDAF|
E3 F GFGA|B2 gB fBeB|(3ded ce dBAF|DFAF GE E2:|
|:Be~e2 Beed|Beef edBc|dA~A2 eAce|d2ce dBAF|
~E3 F GFGA|B2 gB fBeB|(3ded ce dBAF|DEFD GE E3 A:|


Tune 36	Setting 21584

